X:21
T:Menuet ur Matthias Silvius Svenonis notbok
T:(SmM IX:21)
R:Menuett
S:Matthias Silvius Svenonis
O:Kalmar, Småland
B:Småländsk musiktradition
Q:1/4=140
M:3/4
L:1/8
K:Gm
d2|:B2 A2 G2|d2 d2 g2|^f6|g2 g2 d2|
e2 d2 c2|f2 gf ed|c4 B2|B4 d2:|
|:d2 d2 e2|c4 f2-|fg =e3 f|f6|
d2 ed cB|A3 A B2|A2 A3 G|1G4 d2:|2G4||

